icon/ir/bookmark-circled.svg

<svg stroke-width="1.5" viewBox="0 0 24 24" fill="none" xmlns="http://www.w3.org/2000/svg" height="1em" width="1em">
  <path d="M9 16V10C9 8.89543 9.89543 8 11 8H13C14.1046 8 15 8.89543 15 10V16L13.1094 14.7396C12.4376 14.2917 11.5624 14.2917 10.8906 14.7396L9 16Z" stroke="currentColor" stroke-linecap="round" stroke-linejoin="round"/>
  <path d="M12 22C17.5228 22 22 17.5228 22 12C22 6.47715 17.5228 2 12 2C6.47715 2 2 6.47715 2 12C2 17.5228 6.47715 22 12 22Z" stroke="currentColor" stroke-linecap="round" stroke-linejoin="round"/>
</svg>

<svg width="24" height="24" stroke-width="1.5" fill="none" xmlns="http://www.w3.org/2000/svg"><path d="M9 16v-6a2 2 0 0 1 2-2h2a2 2 0 0 1 2 2v6l-1.89-1.26a2 2 0 0 0-2.22 0L9 16Z" stroke="currentColor" stroke-linecap="round" stroke-linejoin="round"/><path d="M12 22c5.523 0 10-4.477 10-10S17.523 2 12 2 2 6.477 2 12s4.477 10 10 10Z" stroke="currentColor" stroke-linecap="round" stroke-linejoin="round"/></svg>
